X:1
T:Lezginka
O:Russia
N:Russian couple dance
Z:http://swiss.csail.mit.edu/~jaffer/Music
Q:1/2=110
M:4/4
L:1/8
K:Dm
P:Intro
%%MIDI channel 1
%%MIDI program 1 15
%%MIDI chordprog 42
%%MIDI chordvol 55
%%MIDI bassprog 43
%%MIDI bassvol 55
"Dm"A2z2 A2z2 | "Gm"BAGB "Dm"AGFA | "Gm"GFEG "Dm"FED2 | "A7"^C2E2 A2A,2 ||
P:A
|: "Dm"D2F2 GF ED | "A7"^C2E2 A2z2 | E2G2 (3GAG FE |1 "Dm"F2D2 A2A,2 :|2 "Dm"F2D2 "D7"D2z2 ||
P:B
|: "Gm"G2B2 d2cB | "Dm"A2A2 A2z2 | "A7"E2G2 (3GAG FE |1 "Dm"D2F2 A2z2 :|2 "Dm"D2F2 D2z2 ||
P:C
|| "Gm"B2z2 "Dm"A2z2 | "A7"GFEG "Dm"FED2 | "Gm"B2z2 "Dm"A2z2 | "A7"GFEF "Dm"D2z2 \
|  "Gm"G2z2 "Dm"F2z2 | "A7"EGFE "Dm"FED2 | "Gm"G2z2 "Dm"F2z2 | "A7"EGFE "Dm"D2zB ||
P:D
|: "Bb"B2d2 (3ded cB | "F"A2.c2 .c2zG | "C7"G2B2 ~B2AG |1 "F"F2A2 c2zB :|2 "F"F2A2 F2z2 ||
P:E
|: "C7"C2E2 G2FE | "F"F2A2 c2z2 | "C7"C2E2 G2FE | "F"F2A2 F2z2 :|
P:G
|| "Gm"B2z2 "Dm"A2z2 | "A7"GFEG "Dm"FED2 | "Gm"B2z2 "Dm"A2z2 | "A7"GFEF "Dm"D2z2 \
|  "Gm"G2z2 "Dm"F2z2 | "A7"EGFE "Dm"FED2 | "Gm"G2z2 "Dm"F2z2 | "A7"EGFE "Dm"D2 \
%%MIDI gchordoff
z2 ||
W:
W:Transcription: J. Chambers
W:
W:Arrangement Copyright (C) 1999 Voluntocracy.
W:Permission is granted to copy and distribute modified or unmodified versions of this music
W:provided the copyright notice and this permission notice are preserved on all copies and the
W:entire such work is distributed under the terms of a permission notice identical to this one.
